docs/images/cog-and-wheel.svg

<svg height="717" viewBox="0 0 676 717" width="676" xmlns="http://www.w3.org/2000/svg"><g fill="#fff" transform="matrix(.8660254 -.5 .5 .8660254 -11.848329 269.987896)"><path d="m480.657937 458.861025 39.134956-7.812457v-98.705217l-39.134956-7.812457c-4.186435-14.396217-9.932522-28.249761-17.145913-41.345608l22.132695-33.123587-69.948348-69.789913-33.193913 22.085804c-13.10313-7.198109-26.996347-12.932022-41.42313-17.109587l-7.829043-39.052044h-98.914783l-7.818783 39.052044c-14.313913 4.146848-28.084 9.809087-41.084521 16.915043l-33.604348-21.819587-69.8149568 69.656805 21.8659128 33.55363c-7.059478 12.860348-12.6926954 26.468152-16.8380867 40.598152l-39.2478261 8.283457v98.510674l39.2478261 8.293696c4.1351304 14.13 9.7786087 27.737804 16.8380867 40.598152l-21.8659128 33.55363 69.8149568 69.656804 33.604348-21.819586c12.887652 7.034282 26.524347 12.665804 40.684347 16.802413l8.311305 39.164673h98.719826l8.321565-39.164673c14.28313-4.167327 28.032696-9.870522 41.022957-16.996957l33.193913 22.085804 69.948347-69.789913-22.132695-33.123587c7.223652-13.095847 12.959478-26.95963 17.156174-41.345608zm-21.424696 71.858217-46.14313 46.055609-29.84887-19.853674-5.55113 3.286761c-14.796174 8.744217-30.79287 15.379174-47.538609 19.710326l-6.146261 1.587065-7.490435 35.21237h-65.454087l-7.480174-35.222609-6.14626-1.587065c-16.602087-4.290196-32.465392-10.843239-47.158957-19.474826l-5.479304-3.215087-30.228522 19.618174-46.286783-46.188718 19.659826-30.174717-3.221913-5.467696c-8.649913-14.652196-15.206608-30.481891-19.505913-47.048804l-1.580174-6.143478-35.3179127-7.464327v-65.315413l35.3076527-7.464326 1.580173-6.143478c4.299305-16.566913 10.866261-32.396609 19.505913-47.048804l3.221914-5.467696-19.659827-30.174717 46.286783-46.188718 30.228522 19.618174 5.479304-3.215087c14.806435-8.7135 30.823652-15.297261 47.600174-19.587456l6.24887-1.597305 7.049217-35.0895h65.24887l7.038956 35.099739 6.24887 1.597305c16.899652 4.320913 33.050261 10.986587 47.979826 19.822956l5.55113 3.286761 29.84887-19.853674 46.14313 46.055609-19.885565 29.78563 3.283478 5.53937c8.84487 14.908174 15.534957 31.014326 19.865044 47.878174l1.600695 6.23563 35.184522 7.013805v65.120869l-35.184522 7.024044-1.600695 6.23563c-4.330087 16.863848-11.009913 32.97-19.865044 47.878174l-3.283478 5.53937z"/><path d="m271.87868 206.14109h21v22h-21z"/><path d="m144.2274 260.237926 20.526408.0162.016199 20.526407-20.526407-.016199z" transform="matrix(.70710678 -.70710678 .70710678 .70710678 -146.027288 188.4774)"/><path d="m89.44513 388.574639h21v22h-21z"/><path d="m144.224705 521.292684 20.526407.0162.0162 20.526407-20.526407-.0162z" transform="matrix(.70710678 -.70710678 .70710678 .70710678 -330.621666 264.936663)"/><path d="m274 577.37215h21v22h-21z"/><path d="m405.681502 521.294422 20.526407.0162.0162 20.526407-20.526407-.0162z" transform="matrix(.70710678 -.70710678 .70710678 .70710678 -254.043973 449.815046)"/><path d="m461.383297 389.988853h21v22h-21z"/><path d="m405.684197 260.239665 20.526408.0162.0162 20.526407-20.526408-.0162z" transform="matrix(.70710678 -.70710678 .70710678 .70710678 -69.449594 373.355784)"/><path d="m282.025126 266.221086c-73.885538 0-134 59.665846-134 133s60.114462 133 134 133c73.885539 0 134-59.665846 134-133s-60.114461-133-134-133zm0 245.538461c-62.516154 0-113.384615-50.488846-113.384615-112.538461 0-62.049616 50.868461-112.538462 113.384615-112.538462s113.384616 50.488846 113.384616 112.538462c0 62.049615-50.868462 112.538461-113.384616 112.538461z"/><path d="m283.43934 329.842406c-39.416929 0-71.5 32.072857-71.5 71.5s32.083071 71.5 71.5 71.5c39.416928 0 71.5-32.072857 71.5-71.5s-32.083072-71.5-71.5-71.5zm0 122.571429c-28.160786 0-51.071429-22.910643-51.071429-51.071429s22.910643-51.071428 51.071429-51.071428 51.071428 22.910642 51.071428 51.071428-22.910642 51.071429-51.071428 51.071429z"/><path d="m62.102271 188.458063c30.8463063 0 59.779504-15.865111 76.884341-41.777778h298.80495c17.104838 25.912667 46.038035 41.777778 76.884342 41.777778 21.229335 0 41.255263-7.196222 57.886966-20.805333l3.826217-3.133334v-38.728h-45.071195l-15.428296-31.3333329 15.428296-31.3333334h45.06091v-38.728l-3.826218-3.1333333c-16.631703-13.60911111-36.657631-20.80533333-57.886966-20.80533333-30.846306 0-59.779504 15.86511113-76.884341 41.77777773h-298.794665c-17.104837-25.9126666-46.0380347-41.77777773-76.884341-41.77777773-21.2293352 0-41.2552633 7.19622222-57.88696631 20.80533333l-3.82621739 3.1333333v38.728h45.0711952l15.4282959 31.3333334-15.4282959 31.3333329h-45.0711952v38.728l3.82621739 3.133334c16.63170301 13.609111 36.65763111 20.805333 57.88696631 20.805333zm-41.1421225-41.777778h37.2130498l25.7138265-52.2222219-25.7138265-52.2222223h-37.2130498v-7.6453333c12.1266406-8.6793333 26.2486742-13.2435555 41.1421225-13.2435555 25.549258 0 49.421975 14.0164444 62.289173 36.566l2.972519 5.2117777h322.050249l2.972518-5.2117777c12.856913-22.5495556 36.72963-36.566 62.278888-36.566 14.893448 0 29.015482 4.5642222 41.142123 13.2435555v7.6453333h-37.21305l-25.713827 52.2222223 25.713827 52.2222219h37.21305v7.645334c-12.126641 8.679333-26.248675 13.243555-41.142123 13.243555-25.549258 0-49.421975-14.016444-62.289173-36.566l-2.972519-5.211778h-322.039963l-2.972519 5.211778c-12.867198 22.549556-36.739915 36.566-62.289173 36.566-14.8934483 0-29.0154819-4.564222-41.1421225-13.243555z"/></g></svg>

<?xml version="1.0" encoding="UTF-8"?>
<svg width="676px" height="717px" viewBox="0 0 676 717" version="1.1" xmlns="http://www.w3.org/2000/svg" xmlns:xlink="http://www.w3.org/1999/xlink">
    <!-- Generator: Sketch 59.1 (86144) - https://sketch.com -->
    <title>Group 3 Copy</title>
    <desc>Created with Sketch.</desc>
    <g id="Page-1" stroke="none" stroke-width="1" fill="none" fill-rule="evenodd">
        <g id="Group-3-Copy" transform="translate(397.500000, 402.000000) rotate(-30.000000) translate(-397.500000, -402.000000) translate(109.000000, 83.000000)" fill="#FFFFFF" fill-rule="nonzero">
            <path d="M480.657937,458.861025 L519.792893,451.048568 L519.792893,352.343351 L480.657937,344.530894 C476.471502,330.134677 470.725415,316.281133 463.512024,303.185286 L485.644719,270.061699 L415.696371,200.271786 L382.502458,222.35759 C369.399328,215.159481 355.506111,209.425568 341.079328,205.248003 L333.250285,166.195959 L234.335502,166.195959 L226.516719,205.248003 C212.202806,209.394851 198.432719,215.05709 185.432198,222.163046 L151.82785,200.343459 L82.0128932,270.000264 L103.878806,303.553894 C96.819328,316.414242 91.1861106,330.022046 87.0407193,344.152046 L47.7928932,352.435503 L47.7928932,450.946177 L87.0407193,459.239873 C91.1758497,473.369873 96.819328,486.977677 103.878806,499.838025 L82.0128932,533.391655 L151.82785,603.048459 L185.432198,581.228873 C198.31985,588.263155 211.956545,593.894677 226.116545,598.031286 L234.42785,637.195959 L333.147676,637.195959 L341.469241,598.031286 C355.752371,593.863959 369.501937,588.160764 382.492198,581.034329 L415.686111,603.120133 L485.634458,533.33022 L463.501763,500.206633 C470.725415,487.110786 476.461241,473.247003 480.657937,458.861025 Z M459.233241,530.719242 L413.090111,576.774851 L383.241241,556.921177 L377.690111,560.207938 C362.893937,568.952155 346.897241,575.587112 330.151502,579.918264 L324.005241,581.505329 L316.514806,616.717699 L251.060719,616.717699 L243.580545,581.49509 L237.434285,579.908025 C220.832198,575.617829 204.968893,569.064786 190.275328,560.433199 L184.796024,557.218112 L154.567502,576.836286 L108.280719,530.647568 L127.940545,500.472851 L124.718632,495.005155 C116.068719,480.352959 109.512024,464.523264 105.212719,447.956351 L103.632545,441.812873 L68.3146323,434.348546 L68.3146323,369.033133 L103.622285,361.568807 L105.202458,355.425329 C109.501763,338.858416 116.068719,323.02872 124.708371,308.376525 L127.930285,302.908829 L108.270458,272.734112 L154.557241,226.545394 L184.785763,246.163568 L190.265067,242.948481 C205.071502,234.234981 221.088719,227.65122 237.865241,223.361025 L244.114111,221.76372 L251.163328,186.67422 L316.412198,186.67422 L323.451154,221.773959 L329.700024,223.371264 C346.599676,227.692177 362.750285,234.357851 377.67985,243.19422 L383.23098,246.480981 L413.07985,226.627307 L459.22298,272.682916 L439.337415,302.468546 L442.620893,308.007916 C451.465763,322.91609 458.15585,339.022242 462.485937,355.88609 L464.086632,362.12172 L499.271154,369.135525 L499.271154,434.256394 L464.086632,441.280438 L462.485937,447.516068 C458.15585,464.379916 451.476024,480.486068 442.620893,495.394242 L439.337415,500.933612 L459.233241,530.719242 Z" id="Shape"></path>
            <rect id="Rectangle" x="271.87868" y="206.14109" width="21" height="22"></rect>
            <polygon id="Rectangle" transform="translate(154.498704, 270.509230) rotate(-45.000000) translate(-154.498704, -270.509230) " points="144.2274 260.237926 164.753808 260.254126 164.770007 280.780533 144.2436 280.764334"></polygon>
            <rect id="Rectangle" x="89.4451301" y="388.574639" width="21" height="22"></rect>
            <polygon id="Rectangle" transform="translate(154.496009, 531.563987) rotate(-45.000000) translate(-154.496009, -531.563987) " points="144.224705 521.292684 164.751112 521.308884 164.767312 541.835291 144.240905 541.819091"></polygon>
            <rect id="Rectangle" x="274" y="577.37215" width="21" height="22"></rect>
            <polygon id="Rectangle" transform="translate(415.952806, 531.565726) rotate(-45.000000) translate(-415.952806, -531.565726) " points="405.681502 521.294422 426.207909 521.310622 426.224109 541.837029 405.697702 541.820829"></polygon>
            <rect id="Rectangle" x="461.383297" y="389.988853" width="21" height="22"></rect>
            <polygon id="Rectangle" transform="translate(415.955501, 270.510968) rotate(-45.000000) translate(-415.955501, -270.510968) " points="405.684197 260.239665 426.210605 260.255865 426.226805 280.782272 405.700397 280.766072"></polygon>
            <path d="M282.025126,266.221086 C208.139588,266.221086 148.025126,325.886932 148.025126,399.221086 C148.025126,472.55524 208.139588,532.221086 282.025126,532.221086 C355.910665,532.221086 416.025126,472.55524 416.025126,399.221086 C416.025126,325.886932 355.910665,266.221086 282.025126,266.221086 Z M282.025126,511.759547 C219.508972,511.759547 168.640511,461.270701 168.640511,399.221086 C168.640511,337.17147 219.508972,286.682624 282.025126,286.682624 C344.54128,286.682624 395.409742,337.17147 395.409742,399.221086 C395.409742,461.270701 344.54128,511.759547 282.025126,511.759547 Z" id="Shape"></path>
            <path d="M283.43934,329.842406 C244.022411,329.842406 211.93934,361.915263 211.93934,401.342406 C211.93934,440.769549 244.022411,472.842406 283.43934,472.842406 C322.856268,472.842406 354.93934,440.769549 354.93934,401.342406 C354.93934,361.915263 322.856268,329.842406 283.43934,329.842406 Z M283.43934,452.413835 C255.278554,452.413835 232.367911,429.503192 232.367911,401.342406 C232.367911,373.18162 255.278554,350.270978 283.43934,350.270978 C311.600126,350.270978 334.510768,373.18162 334.510768,401.342406 C334.510768,429.503192 311.600126,452.413835 283.43934,452.413835 Z" id="Shape"></path>
            <path d="M62.102271,188.458063 C92.9485773,188.458063 121.881775,172.592952 138.986612,146.680285 L437.791562,146.680285 C454.8964,172.592952 483.829597,188.458063 514.675904,188.458063 C535.905239,188.458063 555.931167,181.261841 572.56287,167.65273 L576.389087,164.519396 L576.389087,125.791396 L531.317892,125.791396 L515.889596,94.4580631 L531.317892,63.1247297 L576.378802,63.1247297 L576.378802,24.3967297 L572.552584,21.2633964 C555.920881,7.65428529 535.894953,0.458063067 514.665618,0.458063067 C483.819312,0.458063067 454.886114,16.3231742 437.781277,42.2358408 L138.986612,42.2358408 C121.881775,16.3231742 92.9485773,0.458063067 62.102271,0.458063067 C40.8729358,0.458063067 20.8470077,7.65428529 4.21530469,21.2633964 L0.389087297,24.3967297 L0.389087297,63.1247297 L45.4602825,63.1247297 L60.8885784,94.4580631 L45.4602825,125.791396 L0.389087297,125.791396 L0.389087297,164.519396 L4.21530469,167.65273 C20.8470077,181.261841 40.8729358,188.458063 62.102271,188.458063 Z M20.9601485,146.680285 L58.1731983,146.680285 L83.8870248,94.4580631 L58.1731983,42.2358408 L20.9601485,42.2358408 L20.9601485,34.5905075 C33.0867891,25.9111742 47.2088227,21.346952 62.102271,21.346952 C87.651529,21.346952 111.524246,35.3633964 124.391444,57.912952 L127.363963,63.1247297 L449.414212,63.1247297 L452.38673,57.912952 C465.243643,35.3633964 489.11636,21.346952 514.665618,21.346952 C529.559066,21.346952 543.6811,25.9111742 555.807741,34.5905075 L555.807741,42.2358408 L518.594691,42.2358408 L492.880864,94.4580631 L518.594691,146.680285 L555.807741,146.680285 L555.807741,154.325619 C543.6811,163.004952 529.559066,167.569174 514.665618,167.569174 C489.11636,167.569174 465.243643,153.55273 452.376445,131.003174 L449.403926,125.791396 L127.363963,125.791396 L124.391444,131.003174 C111.524246,153.55273 87.651529,167.569174 62.102271,167.569174 C47.2088227,167.569174 33.0867891,163.004952 20.9601485,154.325619 L20.9601485,146.680285 Z" id="Shape"></path>
        </g>
    </g>
</svg>
